X: 247
T: Capt.n Finch's fancy
%R: reel
Z: 2014 John Chambers <jc:trillian.mit.edu>
B: Preston "Twenty four Country Dances for the Year 1794" p.104 #1
F: http://www.vwml.org/browse/browse-collections-dance-tune-books/browse-prestons1794# 2014-8-10
M: 2/4
L: 1/16
K: G
|:\
GFGA G3A | BABc B3g |\
gfed e3c | BAGF G4 :|
|:\
d2dd e2ee | f2ff g4 |\
g2dB e3c | BAGF G4 :|
% - - - - - - - - - - - - - - - - - - - - - - - - -
%%begintext align
%% Turn your Part.r half round with the right
%% hand .| Turn back again with the left
%% hand :| Lead down the middle up again
%% & cast off :|:
%%endtext
% - - - - - - - - - - - - - - - - - - - - - - - - -

%%sep 1 1 500
%%sep 1 1 500
